X: 138
T:Sheila Coylei's
M:C
L:1/8
D:Four men & a Dog : Barking Mad
K:D
|F A (3AAA FADF | ADFA BAGF | GBBA ~B3B  | ABdf edBA |
F A (3AAA FADF | ADFA BAGF | GABG FA (3AAA | EFGE FD D2 :||
dffe ~f3 e | dcdB ADFA | ce (3eee acac | B3 c BAFA |
dffe ~f3 e | dcdB ADFA | G2 BG FA (3AAA | EFGE FD D2 :||
